X:1
T:Marlborough (Sullivan), 11.10.11.10
T:Marlborough (Sullivan), 11.10.11.10
T:Arranged by Arthur S. Sullivan, 1874
T:Public Domain Courtesy of the Cyber Hymnal™
C:Arranged by Arthur S. Sullivan, 1874
Z:Public Domain
Z:Courtesy of the Cyber Hymnal™
%%score ( 1 2 ) ( 3 4 )
L:1/8
M:4/4
K:Eb
V:1 treble 
V:2 treble 
V:3 bass 
V:4 bass 
V:1
 [EG]4 [EG]2 [EG]2 | [EG]6 [EG]2 | [EB]2 [Dc]2 [EB]2 [FA]2 | [FA]4 [EG]4 | [EG]4 [Ge]2 [Ge]2 | %5
 [^Fd]2 [=Ac]2 [GB]2 [Gc]2 | [FB]4 [E=A]4 | [DB]8 | [EG]4 [FG]2 [FG]2 | %9
 [EG]6 [EG]2 [Ac]2 [GB]2 [FA]2 [=EG]2 | [=EG]4 F4 | [FA]4 [FA]2 [FA]2 | [FA]2 [FB]2 [EG]2 [EA]2 | %13
 [EF]4 [DF]4 | E8 |] x8 |] %16
V:2
 x8 | x8 | x8 | x8 | x8 | x8 | x8 | x8 | x8 | x16 | x4 F4 | x8 | x8 | x8 | E8 |] x8 |] %16
V:3
 [E,B,]4 [E,B,]2 [E,B,]2 | [E,B,]6 [E,B,]2 | [B,,G,]2 [B,,A,]2 [C,G,]2 [D,F,]2 | [E,B,]4 [E,B,]4 | %4
 [C,C]4 [C,C]2 [C,B,]2 | [D,=A,]2 [^F,D]2 [G,D]2 [E,E]2 | [F,D]4 [F,C]4 | [B,,B,]8 | %8
 [E,B,]4 [D,=B,]2 [D,B,]2 | [C,C]6 [C,C]2 x8 | [A,,C]2 [B,,_D]2 [C,C]2 [C,B,]2 | [C,B,]4 [F,A,]4 | %12
 [F,C]4 [E,C]2 [E,C]2 | [D,B,]2 [D,B,]2 [E,B,]2 [C,A,]2 | [A,,C]4 B,2 A,2 |] [E,G,]8 |] %16
V:4
 x8 | x8 | x8 | x8 | x8 | x8 | x8 | x8 | x8 | x16 | x8 | x8 | x8 | x8 | x4 B,,4 |] x8 |] %16

